public/img/up-mission.svg

<svg width="80" height="80" viewBox="0 0 80 80" fill="none" xmlns="http://www.w3.org/2000/svg">
<path fill-rule="evenodd" clip-rule="evenodd" d="M0 0H5V75H80V80H0V0ZM74.085 59.435C74.3393 59.227 74.55 58.9708 74.7052 58.6813C74.8604 58.3917 74.957 58.0745 74.9895 57.7475C75.0221 57.4206 74.9898 57.0905 74.8947 56.7761C74.7995 56.4616 74.6433 56.169 74.435 55.915L51.935 28.415C51.7139 28.1451 51.4386 27.9244 51.1271 27.7673C50.8155 27.6101 50.4745 27.5199 50.126 27.5025C49.7775 27.4851 49.4292 27.5408 49.1035 27.6661C48.7778 27.7914 48.482 27.9835 48.235 28.23L35.3 41.165L17.02 16.03C16.6201 15.5215 16.0387 15.1878 15.3979 15.0991C14.7571 15.0103 14.1069 15.1734 13.5839 15.554C13.0608 15.9346 12.7057 16.5032 12.5931 17.1402C12.4804 17.7772 12.6191 18.4331 12.98 18.97L32.98 46.47C33.1923 46.7624 33.4654 47.0054 33.7806 47.1821C34.0959 47.3588 34.4456 47.465 34.8059 47.4935C35.1661 47.5221 35.5282 47.4721 35.8673 47.3472C36.2064 47.2223 36.5144 47.0254 36.77 46.77L49.815 33.72L70.565 59.085C70.773 59.3393 71.0292 59.55 71.3187 59.7052C71.6083 59.8604 71.9256 59.957 72.2525 59.9895C72.5794 60.0221 72.9095 59.9898 73.2239 59.8947C73.5384 59.7995 73.831 59.6433 74.085 59.435Z" fill="#573CDA"/>
</svg>

<svg width="80" height="80" fill="none" xmlns="http://www.w3.org/2000/svg"><path fill-rule="evenodd" clip-rule="evenodd" d="M0 0h5v75h75v5H0V0zm74.085 59.435a2.5 2.5 0 00.35-3.52l-22.5-27.5a2.5 2.5 0 00-3.7-.185L35.3 41.165 17.02 16.03a2.5 2.5 0 00-4.04 2.94l20 27.5a2.5 2.5 0 003.79.3l13.045-13.05 20.75 25.365a2.5 2.5 0 003.52.35z" fill="#573CDA"/></svg>
